usr/share/icons/biglinux-icons-material/scalable/apps/libreoffice-draw.svg

<svg width="24" height="24" viewBox="0 0 24 24" fill="none" xmlns="http://www.w3.org/2000/svg">
<path fill-rule="evenodd" clip-rule="evenodd" d="M9.59604 1.11359C9.71588 1.11486 9.83043 1.0996 9.93969 1.06779C11.3755 0.973736 12.8111 0.977551 14.2467 1.07924C15.5484 1.18066 16.8085 1.46308 18.0269 1.9265C20.0525 2.76044 21.4386 4.2069 22.185 6.26586C22.6119 7.50549 22.8639 8.78021 22.9411 10.09C23.0478 11.7347 23.0096 13.3758 22.8265 15.0133C22.6895 16.1642 22.3916 17.271 21.933 18.3336C21.0824 20.1761 19.704 21.447 17.7978 22.1463C16.2531 22.6682 14.6647 22.943 13.0325 22.9706C11.1966 23.0661 9.37913 22.9287 7.57997 22.5585C4.26839 21.8208 2.22559 19.8018 1.45158 16.5017C1.12311 15.0161 0.974199 13.5124 1.00483 11.9906C0.968176 10.3724 1.14 8.77709 1.52031 7.20471C2.33171 4.11908 4.2905 2.20701 7.39669 1.46852C8.12048 1.29157 8.8536 1.17326 9.59604 1.11359Z" fill="url(#paint0_radial_10_27)"/>
<circle cx="9.52983" cy="10.4465" r="4.47719" fill="url(#paint1_radial_10_27)" stroke="#CC5E55" stroke-width="0.77193"/>
<rect x="12.3088" y="9.2114" width="6.6386" height="6.6386" rx="0.849123" fill="url(#paint2_radial_10_27)" stroke="#006699" stroke-width="0.77193"/>
<path d="M11.2687 12.1061L13.6753 16.2746C14.0022 16.8406 13.5936 17.5482 12.94 17.5482H8.1267C7.47304 17.5482 7.06451 16.8406 7.39133 16.2746L9.79797 12.1061C10.1248 11.5401 10.9419 11.5401 11.2687 12.1061Z" fill="url(#paint3_radial_10_27)" stroke="#FFC328" stroke-width="0.77193"/>
<defs>
<radialGradient id="paint0_radial_10_27" cx="0" cy="0" r="1" gradientUnits="userSpaceOnUse" gradientTransform="translate(12 1) rotate(90) scale(22)">
<stop stop-color="#F4F4F4"/>
<stop offset="1" stop-color="#BBBBBB"/>
</radialGradient>
<radialGradient id="paint1_radial_10_27" cx="0" cy="0" r="1" gradientUnits="userSpaceOnUse" gradientTransform="translate(9.52983 1.97396) rotate(90) scale(17.325)">
<stop stop-color="#F4F4F4"/>
<stop offset="1" stop-color="#BBBBBB"/>
</radialGradient>
<radialGradient id="paint2_radial_10_27" cx="0" cy="0" r="1" gradientUnits="userSpaceOnUse" gradientTransform="translate(15.6281 6.07544) rotate(90) scale(13.2)">
<stop stop-color="#F4F4F4"/>
<stop offset="1" stop-color="#BBBBBB"/>
</radialGradient>
<radialGradient id="paint3_radial_10_27" cx="0" cy="0" r="1" gradientUnits="userSpaceOnUse" gradientTransform="translate(10.5333 7.13865) rotate(90) scale(14.025 16.1947)">
<stop stop-color="#F4F4F4"/>
<stop offset="1" stop-color="#BBBBBB"/>
</radialGradient>
</defs>
</svg>

<svg xmlns="http://www.w3.org/2000/svg" width="24" height="24" fill="none"><path fill="url(#a)" fill-rule="evenodd" d="M9.596 1.114c.12 0 .234-.014.344-.046a31.627 31.627 0 0 1 4.307.011c1.301.102 2.561.384 3.78.848 2.025.833 3.412 2.28 4.158 4.339.427 1.24.679 2.514.756 3.824a27.94 27.94 0 0 1-.114 4.923 11.88 11.88 0 0 1-.894 3.32c-.85 1.843-2.229 3.114-4.135 3.813a15.624 15.624 0 0 1-4.765.825 21.423 21.423 0 0 1-5.453-.413c-3.312-.737-5.354-2.756-6.128-6.056a19.047 19.047 0 0 1-.447-4.511 18.491 18.491 0 0 1 .515-4.786c.812-3.086 2.77-4.998 5.877-5.736a13.953 13.953 0 0 1 2.199-.355Z" clip-rule="evenodd"/><circle cx="9.53" cy="10.447" r="4.477" fill="url(#b)" stroke="#CC5E55" stroke-width=".772"/><rect width="6.639" height="6.639" x="12.309" y="9.211" fill="url(#c)" stroke="#069" stroke-width=".772" rx=".849"/><path fill="url(#d)" stroke="#FFC328" stroke-width=".772" d="m11.269 12.106 2.406 4.169a.849.849 0 0 1-.735 1.273H8.127a.85.85 0 0 1-.736-1.273l2.407-4.169a.85.85 0 0 1 1.47 0Z"/><defs><radialGradient id="a" cx="0" cy="0" r="1" gradientTransform="matrix(0 22 -22 0 12 1)" gradientUnits="userSpaceOnUse"><stop stop-color="#F4F4F4"/><stop offset="1" stop-color="#BBB"/></radialGradient><radialGradient id="b" cx="0" cy="0" r="1" gradientTransform="rotate(90 3.778 5.752) scale(17.325)" gradientUnits="userSpaceOnUse"><stop stop-color="#F4F4F4"/><stop offset="1" stop-color="#BBB"/></radialGradient><radialGradient id="c" cx="0" cy="0" r="1" gradientTransform="rotate(90 4.776 10.852) scale(13.2)" gradientUnits="userSpaceOnUse"><stop stop-color="#F4F4F4"/><stop offset="1" stop-color="#BBB"/></radialGradient><radialGradient id="d" cx="0" cy="0" r="1" gradientTransform="matrix(0 14.025 -16.1947 0 10.533 7.139)" gradientUnits="userSpaceOnUse"><stop stop-color="#F4F4F4"/><stop offset="1" stop-color="#BBB"/></radialGradient></defs></svg>
